!!!OTL: Es fliegen zwei Tauben wohl ueber den Rhein,: sie kommen den ganzen Sommer nicht heim.
!!!ARE: Europa, Mitteleuropa, Lothringen, Weiler
!!!SCT: D0035A
!!!YEM: Copyright 1995, estate of Helmut Schaffrath.
**kern
*ICvox
*Ivox
*M3/4
*k[b-]
*d:
{4d
=1
4g
4g
4a
=2
4g
4g
4d
=3
4fn
4g
4fn
=4
2d}
{4d
=5
4a
4a
4g
=6
4a
4a
4g
=7
4a
4a
4g
=8
2a}
{4a
=9
4.d
8e
4fn
=10
4g
4fn
4e
=11
4d
4d
4c#
=12
2d}
==
!!!AGN: Liebes - Lied
!! Variante zu D0035 und D0032
!!!ONB: ESAC (Essen Associative Code) Database: DVA
!!!AMT: simple triple
!!!AIN: vox
!!!EED: Helmut Schaffrath
!!!EEV: 1.0
*-
